X:14
T:Alunelul de la Urzica
O:rumania
M:4/4
L:1/8
Q:1/4=200
K:ADor
A,2 C2 E2 E2| A,2 C2 E2 E2| A,2 C2 E2 E2| A,2 C2 E2 E2|
|:cBcA cBcA|cBcA e/f/e/f/e/f/e/f/|e2 e2 c2 c2| e2 e2 A4:|
|:ga _bg af ge |fc e2 c4 |e2 e2 e2 c2 | e2 e2 A4 :|
